images/icon_youtube.svg

<svg width="36" height="29" viewBox="0 0 36 29" fill="none" xmlns="http://www.w3.org/2000/svg">
<path d="M34.5865 4.43493C35.3838 7.57082 35.3838 14.1171 35.3838 14.1171C35.3838 14.1171 35.3838 20.6634 34.5865 23.7993C34.1433 25.5327 32.847 26.8965 31.2052 27.3575C28.2235 28.1952 17.9367 28.1952 17.9367 28.1952C17.9367 28.1952 7.65505 28.1952 4.6681 27.3575C3.01934 26.8894 1.72476 25.5274 1.28684 23.7993C0.489502 20.6634 0.489502 14.1171 0.489502 14.1171C0.489502 14.1171 0.489502 7.57082 1.28684 4.43493C1.72999 2.70157 3.02632 1.33776 4.6681 0.876706C7.65505 0.0390622 17.9367 0.0390625 17.9367 0.0390625C17.9367 0.0390625 28.2235 0.0390622 31.2052 0.876706C32.854 1.3448 34.1486 2.70685 34.5865 4.43493V4.43493ZM14.4472 20.2763L24.9155 14.1171L14.4472 7.95797V20.2763Z" fill="white"/>
</svg>

<?xml version="1.0" encoding="utf-8"?>
<!-- Generator: Adobe Illustrator 26.3.1, SVG Export Plug-In . SVG Version: 6.00 Build 0)  -->
<svg version="1.1" id="圖層_1" xmlns="http://www.w3.org/2000/svg" xmlns:xlink="http://www.w3.org/1999/xlink" x="0px" y="0px"
	 viewBox="0 0 36 29" style="enable-background:new 0 0 36 29;" xml:space="preserve">
<style type="text/css">
	.st0{fill:#FFFFFF;}
</style>
<path class="st0" d="M34.6,4.4c0.8,3.1,0.8,9.7,0.8,9.7s0,6.5-0.8,9.7c-0.4,1.7-1.7,3.1-3.4,3.6c-3,0.8-13.3,0.8-13.3,0.8
	s-10.3,0-13.3-0.8c-1.6-0.5-2.9-1.8-3.4-3.6c-0.8-3.1-0.8-9.7-0.8-9.7s0-6.5,0.8-9.7C1.7,2.7,3,1.3,4.7,0.9C7.7,0,17.9,0,17.9,0
	s10.3,0,13.3,0.8C32.9,1.3,34.1,2.7,34.6,4.4L34.6,4.4z M14.4,20.3l10.5-6.2L14.4,8V20.3z"/>
</svg>
